X: 218
T: Song When a Game Is Almost Won
C: Teton Sioux band 1911-1914
N: Derived from sioux213.krn
O: South Dakota, U.S.A.
N: Teton Sioux Music by Frances Densmore, 1918
Z: transcribed to **kern format by Craig Sapp
L: 1/8
M: 3/4
Q: 1/4=58
K: B clef=bass
%%linebreak <none>
F, G F [I:setbarnb 1]| 
F4D C | 
D2>F2 F D | 
C4B, G, | 
B,2>D2 D C | 
B,4B, G, | 
B,3 ]|:  
FF2 [I:setbarnb 7]| 
F4D C | 
D2>F2 F D | 
C4B, G, | 
B,2>D2 D C | 
B,4B, G, | 
B,3 :|]  



